src/assets/duotone/TruckRemove.svg

<?xml version="1.0" encoding="UTF-8"?>
<svg width="24" height="24" viewBox="0 0 24 24" xmlns="http://www.w3.org/2000/svg">
 <path d="m5 1c-0.94 0-1.81 0.33-2.5 0.88-0.92 0.73-1.5 1.86-1.5 3.12 0 0.75 0.21002 1.46 0.58002 2.06 0.69 1.16 1.96 1.94 3.42 1.94 1.01 0 1.93-0.37 2.63-1 0.31-0.26 0.57998-0.58 0.78998-0.94 0.37-0.6 0.58002-1.31 0.58002-2.06 0-2.21-1.79-4-4-4zm1.6 5.58c-0.15 0.15-0.33997 0.21997-0.52997 0.21997s-0.38003-0.06997-0.53003-0.21997l-0.52997-0.53003-0.54999 0.54999c-0.15 0.15-0.34003 0.22003-0.53003 0.22003s-0.37997-0.07003-0.52997-0.22003c-0.29-0.29-0.29-0.77 0-1.06l0.54999-0.54999-0.53003-0.52997c-0.29-0.29-0.29-0.77 0-1.06s0.77-0.29 1.06 0l0.53003 0.52997 0.5-0.5c0.29-0.29 0.77-0.29 1.06 0s0.29 0.77 0 1.06l-0.5 0.5 0.52997 0.53003c0.29 0.29 0.29 0.76 0 1.06z"/>
 <path d="m15 3v9c0 1.1-0.9 2-2 2h-11v-6.38c0.73 0.87 1.85 1.41 3.09 1.38 1.01-0.02 1.92-0.41 2.6-1.06 0.31-0.26 0.57002-0.59001 0.77002-0.95001 0.36-0.61 0.55998-1.33 0.53998-2.08-0.03-1.17-0.54999-2.2-1.36-2.91h6.36c0.55 0 1 0.45 1 1z" opacity=".4"/>
 <path d="m22 14v3c0 1.66-1.34 3-3 3h-1c0-1.1-0.9-2-2-2s-2 0.9-2 2h-4c0-1.1-0.9-2-2-2s-2 0.9-2 2h-1c-1.66 0-3-1.34-3-3v-3h11c1.1 0 2-0.9 2-2v-7h1.84c0.72 0 1.38 0.39001 1.74 1.01l1.71 2.99h-1.29c-0.55 0-1 0.45-1 1v3c0 0.55 0.45 1 1 1h3z"/>
 <path d="m8 22c1.1046 0 2-0.8954 2-2s-0.89543-2-2-2-2 0.8954-2 2 0.89543 2 2 2z" opacity=".4"/>
 <path d="m16 22c1.1046 0 2-0.8954 2-2s-0.8954-2-2-2-2 0.8954-2 2 0.8954 2 2 2z" opacity=".4"/>
 <path d="m22 12.53v1.47h-3c-0.55 0-1-0.45-1-1v-3c0-0.55 0.45-1 1-1h1.29l1.45 2.54c0.17 0.3 0.26 0.64 0.26 0.99z" opacity=".4"/>
</svg>

<svg width="24" height="24" viewBox="0 0 24 24"  xmlns="http://www.w3.org/2000/svg">
<path d="M5 1C4.06 1 3.19 1.33 2.5 1.88C1.58 2.61 1 3.74 1 5C1 5.75 1.21002 6.46 1.58002 7.06C2.27002 8.22 3.54 9 5 9C6.01 9 6.93001 8.63 7.63 8C7.94 7.74 8.20998 7.42 8.41998 7.06C8.78998 6.46 9 5.75 9 5C9 2.79 7.21 1 5 1ZM6.59998 6.58002C6.44998 6.73002 6.26001 6.79999 6.07001 6.79999C5.88001 6.79999 5.68998 6.73002 5.53998 6.58002L5.01001 6.04999L4.46002 6.59998C4.31002 6.74998 4.11999 6.82001 3.92999 6.82001C3.73999 6.82001 3.55002 6.74998 3.40002 6.59998C3.11002 6.30998 3.11002 5.82998 3.40002 5.53998L3.95001 4.98999L3.41998 4.46002C3.12998 4.17002 3.12998 3.69002 3.41998 3.40002C3.70998 3.11002 4.18998 3.11002 4.47998 3.40002L5.01001 3.92999L5.51001 3.42999C5.80001 3.13999 6.28001 3.13999 6.57001 3.42999C6.86001 3.71999 6.86001 4.19999 6.57001 4.48999L6.07001 4.98999L6.59998 5.52002C6.88998 5.81002 6.88998 6.28002 6.59998 6.58002Z" />
<path opacity="0.4" d="M15 3V12C15 13.1 14.1 14 13 14H2V7.62C2.73 8.49 3.85003 9.03 5.09003 9C6.10003 8.98 7.01 8.59 7.69 7.94C8 7.68 8.26002 7.34999 8.46002 6.98999C8.82002 6.37999 9.02 5.65997 9 4.90997C8.97 3.73997 8.45001 2.71 7.64001 2H14C14.55 2 15 2.45 15 3Z" />
<path d="M22 14V17C22 18.66 20.66 20 19 20H18C18 18.9 17.1 18 16 18C14.9 18 14 18.9 14 20H10C10 18.9 9.1 18 8 18C6.9 18 6 18.9 6 20H5C3.34 20 2 18.66 2 17V14H13C14.1 14 15 13.1 15 12V5H16.84C17.56 5 18.22 5.39001 18.58 6.01001L20.29 9H19C18.45 9 18 9.45 18 10V13C18 13.55 18.45 14 19 14H22Z" />
<path opacity="0.4" d="M8 22C9.10457 22 10 21.1046 10 20C10 18.8954 9.10457 18 8 18C6.89543 18 6 18.8954 6 20C6 21.1046 6.89543 22 8 22Z" />
<path opacity="0.4" d="M16 22C17.1046 22 18 21.1046 18 20C18 18.8954 17.1046 18 16 18C14.8954 18 14 18.8954 14 20C14 21.1046 14.8954 22 16 22Z" />
<path opacity="0.4" d="M22 12.53V14H19C18.45 14 18 13.55 18 13V10C18 9.45 18.45 9 19 9H20.29L21.74 11.54C21.91 11.84 22 12.18 22 12.53Z" />
</svg>
